packages/webapp/public/images/template-logos/digitalocean.svg

<svg width="62" height="62" viewBox="0 0 62 62" fill="none" xmlns="http://www.w3.org/2000/svg">
<path d="M31.0031 53V44.4682C40.0339 44.4682 47.0439 35.5123 43.5763 26.0075C42.304 22.5149 39.4851 19.696 35.9675 18.4237C26.4628 14.981 17.5069 21.9661 17.5069 30.9969H9C9 16.6025 22.9203 5.37646 38.0132 10.0914C44.5992 12.162 49.8629 17.4008 51.9086 23.9868C56.6235 39.0797 45.3975 53 31.0031 53Z" fill="#0080FF"/>
<path fill-rule="evenodd" clip-rule="evenodd" d="M31.0281 44.5186H22.5212V36.0117H31.0281V44.5186Z" fill="#0080FF"/>
<path fill-rule="evenodd" clip-rule="evenodd" d="M22.5212 51.0297H16.0101V44.5186H22.5212V51.0297Z" fill="#0080FF"/>
<path fill-rule="evenodd" clip-rule="evenodd" d="M16.0101 44.518H10.5467V39.0547H16.0101V44.518Z" fill="#0080FF"/>
</svg>

<svg xmlns="http://www.w3.org/2000/svg" width="62" height="62" fill="#0080ff"><path d="M31.003 53v-8.532c9.031 0 16.041-8.956 12.573-18.461-1.272-3.493-4.091-6.311-7.609-7.584-9.505-3.443-18.461 3.542-18.461 12.573H9c0-14.394 13.92-25.62 29.013-20.905 6.586 2.071 11.85 7.309 13.895 13.895C56.624 39.08 45.398 53 31.003 53z"/><g fill-rule="evenodd"><path d="M31.028 44.518h-8.507v-8.507h8.507v8.507z"/><path d="M22.521 51.029H16.01v-6.511h6.511v6.511z"/><path d="M16.01 44.518h-5.463v-5.463h5.463v5.463z"/></g></svg>
